!!!!SEGMENT: Snf0228-Nesciens_mater_virgo_virum
!!!id: Snf0228
!!!AGN: Motet
!!!SCT: Edwards, Gasch, Tröster (2022)
!!!voices: 4
!!!COM: Ludwig Senfl
!!!OTL: Nesciens mater virgo virum
**kern	**text	**kern	**text	**kern	**text	**kern	**text
*part4	*part4	*part3	*part3	*part2	*part2	*part1	*part1
*staff4	*staff4	*staff3	*staff3	*staff2	*staff2	*staff1	*staff1
*I"Bassus	*	*I"Tenor	*	*I"Altus	*	*I"Superius	*
*I'B	*	*I'T	*	*I'A	*	*I'S	*
*clefF4	*	*clefGv2	*	*clefG2	*	*clefG2	*
*	*	*	*	*	*	*	*
*k[]	*	*k[]	*	*k[]	*	*k[]	*
*	*	*	*	*	*	*	*
*M2/1	*	*M2/1	*	*M2/1	*	*M2/1	*
*met(C)	*	*met(C)	*	*met(C)	*	*met(C)	*
!!section: Prima pars: Nesciens mater virgo virum
!!!OMD: Prima pars: Nesciens mater virgo virum
0r	.	0r	.	0r	.	1.cc	Ne-
.	.	.	.	.	.	2cc	-sci-
=1	=1	=1	=1	=1	=1	=1	=1
0r	.	0r	.	1r	.	1cc	-ens
.	.	.	.	[1f	Ne-	1dd	ma-
=2	=2	=2	=2	=2	=2	=2	=2
0r	.	0r	.	2f]	.	1cc	-ter
.	.	.	.	2f	-sci-	.	.
.	.	.	.	1f	-ens	[1dd	vir-
=3	=3	=3	=3	=3	=3	=3	=3
0r	.	0r	.	1g	ma-	1dd]	.
.	.	.	.	1f	-ter	1dd	-go
=4	=4	=4	=4	=4	=4	=4	=4
0r	.	1.c	Ne-	1g	vir-	1ee	.
.	.	.	.	1g	-go	1cc	vi-
.	.	2c	-sci-	.	.	.	.
=5	=5	=5	=5	=5	=5	=5	=5
1.F	Ne-	1c	-ens	1a	.	1cc	-rum,
.	.	1d	ma-	1f	vi-	4a	vir-
.	.	.	.	.	.	4g	.
2F	-sci-	.	.	.	.	4a	.
.	.	.	.	.	.	4b	.
=6	=6	=6	=6	=6	=6	=6	=6
1F	-ens	1c	-ter	1f	-rum,	2cc	.
.	.	.	.	.	.	1a	.
1G	ma-	1r	.	4d	vir-	.	.
.	.	.	.	4c	.	.	.
.	.	.	.	4d	.	2g	.
.	.	.	.	4e	.	.	.
=7	=7	=7	=7	=7	=7	=7	=7
1F	-ter	2r	.	4f	.	1a	-go,
.	.	.	.	4e	.	.	.
.	.	1d	vir-	4d	.	.	.
.	.	.	.	4c	.	.	.
1G	vir-	.	.	2B	.	1b	vir-
.	.	[2d	-go	2G	.	.	.
=8	=8	=8	=8	=8	=8	=8	=8
1G	-go	2d]	.	1g	.	1b	-go
.	.	1e	.	.	.	.	.
1A	.	.	.	1e	-go	1cc	.
.	.	[2c	vi-	.	.	.	.
=9	=9	=9	=9	=9	=9	=9	=9
1F	vi-	2c]	.	1f	vi-	1a	vi-
.	.	1c	-rum,	.	.	.	.
1F	-rum,	.	.	1f	-rum,	1a	-rum,
.	.	[2A	vir-	.	.	.	.
=10	=10	=10	=10	=10	=10	=10	=10
2.D	vir-	2A]	.	2.f	vi-	0dd	vir-
.	.	1d	.	.	.	.	.
4E	.	.	.	4g	.	.	.
2F	.	.	.	2a	.	.	.
[2G	.	2G	.	[2b-i	.	.	.
=11	=11	=11	=11	=11	=11	=11	=11
2G]	.	2.d	-go	2b-]	.	0dd	-go
4F	.	.	.	4a	.	.	.
4E	.	4e	.	4g	.	.	.
1D	.	1f	.	2a	.	.	.
.	.	.	.	2b	.	.	.
=12	=12	=12	=12	=12	=12	=12	=12
0C	-go	1g	vi-	0cc	.	0ee	.
.	.	1e	.	.	.	.	.
=13	=13	=13	=13	=13	=13	=13	=13
1.F	vi-	1f	.	1.a	.	0cc	vi-
.	.	[1c	.	.	.	.	.
2E	.	.	.	4g	.	.	.
.	.	.	.	4f	.	.	.
=14	=14	=14	=14	=14	=14	=14	=14
1.A	.	2c]	.	2e	.	2.cc	-rum,
.	.	1e	.	1.a	.	.	.
.	.	.	.	.	.	4b	.
.	.	.	.	.	.	2cc	.
2D	.	2d	.	.	.	[2dd	vi-
=15	=15	=15	=15	=15	=15	=15	=15
2G	.	2B	.	2d	.	2dd]	.
2A	.	2c	.	2f	.	1cc	.
1G	-rum	1d	.	1g	.	.	.
.	.	.	.	.	.	2b	.
=16	=16	=16	=16	=16	=16	=16	=16
2r	.	0c	-rum	0e	-rum	[0cc	-rum
1C	pe-	.	.	.	.	.	.
2C	-pe-	.	.	.	.	.	.
=17	=17	=17	=17	=17	=17	=17	=17
2.C	-rit,	2r	.	0r	.	0cc]	.
.	.	1c	pe-	.	.	.	.
4D	.	.	.	.	.	.	.
2E	.	.	.	.	.	.	.
[2F	pe-	2c	-pe-	.	.	.	.
=18	=18	=18	=18	=18	=18	=18	=18
4F]	.	2.c	-rit,	0r	.	0r	.
4G	.	.	.	.	.	.	.
4A	.	.	.	.	.	.	.
4B	.	4d	.	.	.	.	.
4c	.	2e	.	.	.	.	.
4B	.	.	.	.	.	.	.
4A	.	[2f	pe-	.	.	.	.
4G	.	.	.	.	.	.	.
=19	=19	=19	=19	=19	=19	=19	=19
2A	.	4f]	.	0r	.	0r	.
.	.	4e	.	.	.	.	.
2F	.	1d	.	.	.	.	.
2G	.	.	.	.	.	.	.
2A	-pe-	2c	-pe-	.	.	.	.
=20	=20	=20	=20	=20	=20	=20	=20
1D	-rit,	1d	-rit,	1r	.	1r	.
[1A	pe-	[1e	pe-	[1a	pe-	[1cc	pe-
=21	=21	=21	=21	=21	=21	=21	=21
1A]	.	1e]	.	1a]	.	1cc]	.
1F	-pe-	1f	-pe-	1a	-pe-	1cc	-pe-
=22	=22	=22	=22	=22	=22	=22	=22
0A	-rit	1.e	-rit,	0a	-rit,	1.cc	-rit,
.	.	2f	.	.	.	2dd	.
=23	=23	=23	=23	=23	=23	=23	=23
1G	.	1g	pe-	1b	pe-	1ee	[pe-
1F	.	1a	.	1cc	.	[1ff	.
=24	=24	=24	=24	=24	=24	=24	=24
0B-i	.	0d	-pe-	1f	-pe-	2ff]	.
.	.	.	.	.	.	2ee	.
.	.	.	.	1g	.	[1dd	.
=25	=25	=25	=25	=25	=25	=25	=25
0A	.	1.e	.	0a	.	2dd]	.
.	.	.	.	.	.	4cc#i	.
.	.	.	.	.	.	4b	.
.	.	.	.	.	.	1cc#i	-pe-
.	.	4d	.	.	.	.	.
.	.	4c	.	.	.	.	.
=26	=26	=26	=26	=26	=26	=26	=26
0G	si-	2B	-rit,	0d	-rit	[0dd	-rit]
.	.	2G	.	.	.	.	.
.	.	[1g	pe-	.	.	.	.
=27	=27	=27	=27	=27	=27	=27	=27
0D	-ne,	2g]	.	1r	.	0dd_	.
.	.	4f#i	.	.	.	.	.
.	.	4e	.	.	.	.	.
.	.	1f#i	-pe-	1a	si-	.	.
=28	=28	=28	=28	=28	=28	=28	=28
1r	.	2g	-rit	0b	-ne	0dd]	.
.	.	2d	si-	.	.	.	.
2r	.	1g	-ne,	.	.	.	.
2G	si-	.	.	.	.	.	.
=29	=29	=29	=29	=29	=29	=29	=29
1A	-ne	2r	.	0cc	do-	0r	.
.	.	2e	si-	.	.	.	.
2r	.	1f	-ne	.	.	.	.
2F	do-	.	.	.	.	.	.
=30	=30	=30	=30	=30	=30	=30	=30
1G	-lo-	2r	.	2.b	-lo-	0r	.
.	.	2d	do-	.	.	.	.
.	.	.	.	4a	.	.	.
2E	.	2e	-lo-	4g	.	.	.
.	.	.	.	4f	.	.	.
2F	.	2c	.	[2a	.	.	.
=31	=31	=31	=31	=31	=31	=31	=31
2D	.	2d	.	2a]	.	0r	.
2E	.	2G	.	1g	.	.	.
2C	.	1A	.	.	.	.	.
2D	.	.	.	2f#i	.	.	.
=32	=32	=32	=32	=32	=32	=32	=32
2BB	.	2G	.	[0g	-re,	1r	.
2C	.	1c	.	.	.	.	.
1G	.	.	.	.	.	1dd	si-
.	.	2B	.	.	.	.	.
=33	=33	=33	=33	=33	=33	=33	=33
0C	-re,	[0c	-re,	0g]	.	0ee	-ne
=34	=34	=34	=34	=34	=34	=34	=34
1F	si-	0c]	.	2r	.	0ff	do-
.	.	.	.	1a	si-	.	.
2.F	-ne	.	.	.	.	.	.
.	.	.	.	2a	-ne	.	.
4G	.	.	.	.	.	.	.
=35	=35	=35	=35	=35	=35	=35	=35
4A	.	0r	.	2a	do-	2.ee	-lo-
4B	.	.	.	.	.	.	.
1c	.	.	.	2g	.	.	.
.	.	.	.	.	.	4dd	.
.	.	.	.	2a	.	4cc	.
.	.	.	.	.	.	4b	.
2G	do-	.	.	[2b	-lo-	[2dd	.
=36	=36	=36	=36	=36	=36	=36	=36
2B	-lo-	1r	.	4b]	.	2dd]	.
.	.	.	.	4a	.	.	.
2c	.	.	.	1g	.	1cc	.
1d	.	1d	si-	.	.	.	.
.	.	.	.	2f	.	2b	.
=37	=37	=37	=37	=37	=37	=37	=37
1c	-re,	0e	-ne	2.g	.	0cc	-re
.	.	.	.	4f	.	.	.
1C	.	.	.	4e	.	.	.
.	.	.	.	4d	.	.	.
.	.	.	.	[2c	.	.	.
=38	=38	=38	=38	=38	=38	=38	=38
0D	.	0f	do-	2c]	.	0r	.
.	.	.	.	4B	.	.	.
.	.	.	.	4A	.	.	.
.	.	.	.	1B	.	.	.
=39	=39	=39	=39	=39	=39	=39	=39
2.C	do-	2.e	-lo-	4c	.	0r	.
.	.	.	.	4d	.	.	.
.	.	.	.	4e	.	.	.
4D	.	4d	.	4f	.	.	.
2E	-lo-	4c	.	2g	.	.	.
.	.	4B	.	.	.	.	.
2F	.	[2d	.	4f	.	.	.
.	.	.	.	4e	.	.	.
=40	=40	=40	=40	=40	=40	=40	=40
2G	-re	2d]	.	4d	.	0r	.
.	.	.	.	4c	.	.	.
2E	.	1c	.	2e	.	.	.
2F	.	.	.	1d	-re	.	.
2G	.	2B	.	.	.	.	.
=41	=41	=41	=41	=41	=41	=41	=41
2A	.	0c	-re	2r	.	1cc	Sal-
2.F	Sal-	.	.	1a	Sal-	.	.
.	.	.	.	.	.	1cc	-va-
4G	.	.	.	.	.	.	.
2A	-va-	.	.	2a	-va-	.	.
=42	=42	=42	=42	=42	=42	=42	=42
1B-X	-to-	0r	.	2f	-to-	0dd	-to-
.	.	.	.	2d	.	.	.
1BB-X	.	.	.	2.f	.	.	.
.	.	.	.	4g	.	.	.
=43	=43	=43	=43	=43	=43	=43	=43
[0F	-rem	2r	.	[0a	-rem	0cc	-rem
.	.	1c	Sal-	.	.	.	.
.	.	2c	-va-	.	.	.	.
=44	=44	=44	=44	=44	=44	=44	=44
0F]	.	1d	-to-	0a_	.	0r	.
.	.	1c	-rem	.	.	.	.
=45	=45	=45	=45	=45	=45	=45	=45
2r	.	1c	sae-	0a]	.	0r	.
1F	sae-	.	.	.	.	.	.
.	.	2c	-cu-	.	.	.	.
2F	-cu-	[2c	-lo-	.	.	.	.
=46	=46	=46	=46	=46	=46	=46	=46
1F	-lo-	2c]	.	0r	.	0r	.
.	.	2d	.	.	.	.	.
2G	.	2e	.	.	.	.	.
2A	.	[2f	.	.	.	.	.
=47	=47	=47	=47	=47	=47	=47	=47
2D	.	2f]	.	0r	.	0r	.
1A	.	4e	.	.	.	.	.
.	.	4d	.	.	.	.	.
.	.	4e	.	.	.	.	.
.	.	4f	.	.	.	.	.
[2G	.	4g	.	.	.	.	.
.	.	4f	.	.	.	.	.
=48	=48	=48	=48	=48	=48	=48	=48
4G]	.	4e	.	0r	.	0r	.
4F	.	4d	.	.	.	.	.
4E	.	1d	.	.	.	.	.
4D	.	.	.	.	.	.	.
1E	.	.	.	.	.	.	.
.	.	2c#i	.	.	.	.	.
=49	=49	=49	=49	=49	=49	=49	=49
1D	-rum	0d	-rum	1r	.	1r	.
[1G	i-	.	.	[1b	… i-	[1dd	… i-
=50	=50	=50	=50	=50	=50	=50	=50
1G]	.	1g	i-	1b]	.	1dd]	.
1G	-psum	1g	-psum	1b	-psum	1dd	-psum
=51	=51	=51	=51	=51	=51	=51	=51
0c	Re-	0g	Re-	0cc	Re-	0ee	Re-
=52	=52	=52	=52	=52	=52	=52	=52
0d	-gem	0f	-gem	0a	-gem	0dd	-gem
=53	=53	=53	=53	=53	=53	=53	=53
1.A	An-	1.e	An-	1.a	An-	1.cc	An-
2A	-ge-	2e	-ge-	2a	-ge-	2cc	-ge-
=54	=54	=54	=54	=54	=54	=54	=54
1A	-lo-	1e	-lo-	1a	-lo-	1cc	-lo-
1D	.	1d	.	1f	.	1a	.
=55	=55	=55	=55	=55	=55	=55	=55
1A	.	2.c	.	2.e	.	1cc	.
.	.	4d	.	4f	.	.	.
2G	.	4e	.	2g	.	2b	.
.	.	4d	.	.	.	.	.
2F	.	2f	.	[2c	.	[2a	.
=56	=56	=56	=56	=56	=56	=56	=56
1G	.	2e	.	2c]	.	4a]	.
.	.	.	.	.	.	4g	.
.	.	2.d	.	2B	.	1g	.
1A	.	.	.	1c	-rum.	.	.
.	.	4c	.	.	.	.	.
.	.	[2c	.	.	.	2f#i	.
=57	=57	=57	=57	=57	=57	=57	=57
1G	.	2c]	.	1d	So-	0g	-rum.
.	.	2B	.	.	.	.	.
1C	-rum,	[1c	-rum.	1e	-la	.	.
=58	=58	=58	=58	=58	=58	=58	=58
2r	.	1c]	.	1g	Vir-	0r	.
2.C	An-	.	.	.	.	.	.
.	.	1G	So-	1g	-go,	.	.
4D	.	.	.	.	.	.	.
2E	-ge-	.	.	.	.	.	.
=59	=59	=59	=59	=59	=59	=59	=59
1F	-lo-	1A	-la	2r	.	1r	.
.	.	.	.	1f	[so-	.	.
1C	.	1c	Vir-	.	.	1g	So-
.	.	.	.	2e	.	.	.
=60	=60	=60	=60	=60	=60	=60	=60
1F	-rum.	1c	-go,	2f	-la	1a	-la
.	.	.	.	1a	Vir-	.	.
1r	.	2.A	Vir-	.	.	1cc	Vir-
.	.	.	.	4g	.	.	.
.	.	4B	.	4f	.	.	.
=61	=61	=61	=61	=61	=61	=61	=61
1C	So-	2c	.	2e	.	1cc	-go
.	.	2e	.	2g	.	.	.
1D	-la	2d	.	2f	.	1r	.
.	.	4c	.	4e	.	.	.
.	.	4B	.	4d	.	.	.
=62	=62	=62	=62	=62	=62	=62	=62
1F	Vir-	0A	-go	1c	-go]	1r	.
1F	-go	.	.	2r	.	1cc	la-
.	.	.	.	[2f	la-	.	.
=63	=63	=63	=63	=63	=63	=63	=63
0r	.	1r	.	2f]	.	1dd	-cta-
.	.	.	.	1g	-cta-	.	.
.	.	1c	la-	.	.	1ee	.
.	.	.	.	2e	.	.	.
=64	=64	=64	=64	=64	=64	=64	=64
1r	.	1d	-cta-	2f	.	2dd	-bat,
.	.	.	.	2d	.	2ff	[la-
1C	la-	1e	.	1g	-bat,	2ee	-cta-
.	.	.	.	.	.	2cc	.
=65	=65	=65	=65	=65	=65	=65	=65
1D	-cta-	2.d	.	2r	.	1ff	.
.	.	.	.	2f	la-	.	.
.	.	4c	.	.	.	.	.
1E	.	2B	.	1g	-cta-	2ee	.
.	.	2G	.	.	.	[2gg	.
=66	=66	=66	=66	=66	=66	=66	=66
1D	-bat,	1d	-bat,	1a	.	2gg]	.
.	.	.	.	.	.	2ff	.
1G	la-	1r	.	2g	.	2.gg	.
.	.	.	.	2b	.	.	.
.	.	.	.	.	.	4ff	.
=67	=67	=67	=67	=67	=67	=67	=67
1A	-cta-	1c	la-	2cc	.	4ee	.
.	.	.	.	.	.	4dd	.
.	.	.	.	1a	.	2.ee	.
1B	.	1d	-cta-	.	.	.	.
.	.	.	.	.	.	4dd	.
.	.	.	.	2g	.	[2dd	.
=68	=68	=68	=68	=68	=68	=68	=68
1A	-bat,	1e	.	2a	-bat,	2dd]	.
.	.	.	.	2A	[la-	2cc#i	.
1r	.	1d	-bat,	2B	-cta-	1dd	.
.	.	.	.	2G	.	.	.
=69	=69	=69	=69	=69	=69	=69	=69
0r	.	1e	u-	1c	-bat,]	2g	-bat,]
.	.	.	.	.	.	2.gg	u-
.	.	1e	-be-	2r	.	.	.
.	.	.	.	.	.	4ff	.
.	.	.	.	[2c	u-	[2ee	.
=70	=70	=70	=70	=70	=70	=70	=70
1r	.	1g	.	2c]	.	2ee]	.
.	.	.	.	2B	-be-	2dd	.
1A	u-	[1e	-re,	2c	-re,	[1ee	.
.	.	.	.	[2cc	u-	.	.
=71	=71	=71	=71	=71	=71	=71	=71
1A	-be-	1e]	.	4cc]	.	2ee]	.
.	.	.	.	4b	.	.	.
.	.	.	.	1a	.	2cc	-be-
1c	.	2r	.	.	.	[1cc	-re
.	.	[2e	u-	2g	.	.	.
=72	=72	=72	=72	=72	=72	=72	=72
0A	-re	2e]	.	2.a	.	0cc]	.
.	.	2c	-be-	.	.	.	.
.	.	.	.	4g	.	.	.
.	.	4c	-re	4a	.	.	.
.	.	4B	.	4b	.	.	.
.	.	4A	.	[2cc	.	.	.
.	.	4G	.	.	.	.	.
=73	=73	=73	=73	=73	=73	=73	=73
0r	.	2F	.	2cc]	.	1dd	de
.	.	2G	.	2b	-be-	.	.
.	.	1A	de	2cc	-re	1cc	.
.	.	.	.	2a	de	.	.
=74	=74	=74	=74	=74	=74	=74	=74
0r	.	2G	.	1b	.	2r	.
.	.	2.g	cae-	.	.	1dd	cae-
.	.	.	.	2r	.	.	.
.	.	4f	.	.	.	.	.
.	.	2e	.	[2g	cae-	[2ee	.
=75	=75	=75	=75	=75	=75	=75	=75
1r	.	2c	.	2g]	.	2ee]	.
.	.	2f	.	1a	.	2dd	.
1E	de	1e	-lo	.	.	1ee	-lo
.	.	.	.	2g	.	.	.
=76	=76	=76	=76	=76	=76	=76	=76
0F	cae-	0A	ple-	1a	-lo	1cc	ple-
.	.	.	.	[1f	ple-	1cc	-no,
=77	=77	=77	=77	=77	=77	=77	=77
0D	-lo,	0d	.	1f]	.	2r	.
.	.	.	.	.	.	2.ff	ple-
.	.	.	.	1f	-no,	.	.
.	.	.	.	.	.	4ee	.
.	.	.	.	.	.	4dd	.
.	.	.	.	.	.	4cc	.
=78	=78	=78	=78	=78	=78	=78	=78
2r	.	1G	-no,	2.g	ple-	2b	.
1G	cae-	.	.	.	.	1dd	.
.	.	.	.	4a	.	.	.
.	.	2r	.	2b-X	.	.	.
[2A	.	2c	ple-	2a	.	[2cc	.
=79	=79	=79	=79	=79	=79	=79	=79
2A]	.	2A	.	2f	.	2cc]	.
2G	.	1d	.	2g	.	2b	.
1A	-lo	.	.	1e	.	2a	.
.	.	2c	.	.	.	2ee	.
=80	=80	=80	=80	=80	=80	=80	=80
2r	.	2d	.	2d	.	2.ff	.
1F	ple-	1a	.	2c	.	.	.
.	.	.	.	.	.	4ee	.
.	.	.	.	2A	.	4dd	.
.	.	.	.	.	.	4cc	.
[2G	.	2g	.	2B	.	4b	.
.	.	.	.	.	.	4a	.
=81	=81	=81	=81	=81	=81	=81	=81
2G]	.	2e	.	2G	.	4b	.
.	.	.	.	.	.	4g	.
2F	.	2f	.	2A	.	1cc	.
1G	-no,	1d	.	2G	.	.	.
.	.	.	.	2d	.	2b	.
=82	=82	=82	=82	=82	=82	=82	=82
2r	.	[0cl	-no.	2.e	.	[0ccl	-no.
1E	ple-	.	.	.	.	.	.
.	.	.	.	4f	.	.	.
.	.	.	.	2g	.	.	.
[2F	.	.	.	[2a	.	.	.
=83	=83	=83	=83	=83	=83	=83	=83
2F]	.	0c_	.	2a]	.	0cc_	.
2E	.	.	.	2g	.	.	.
1F	.	.	.	2a	.	.	.
.	.	.	.	[2A	-no,	.	.
=84	=84	=84	=84	=84	=84	=84	=84
[0Cl	-no.	0c_	.	2A]	.	0cc_	.
.	.	.	.	2G	ple-	.	.
.	.	.	.	2A	.	.	.
.	.	.	.	2G	.	.	.
=85	=85	=85	=85	=85	=85	=85	=85
00C]	.	00c]	.	00gl	-no.	00cc]	.
==	==	==	==	==	==	==	==
*-	*-	*-	*-	*-	*-	*-	*-
!!!system-decoration: [*]
!!!RDF**kern: i = editorial accidental
!!!RDF**kern: l = terminal long
!!!PTL: <i> New Senfl Edition: Motets for Four Voices (N-V) </i>
!!!PPR: Hollitzer Verlag
!!!PC#: Denkmäler der Tonkunst in Österreich 163.2
!!!PDT: 2022
!!!PED: Scott Lee Edwards, Stefan Gasch, and Sonja Tröster
!!!YEC: Copyright 2022 Denkmäler der Tonkunst in Österreich
!!!YEM: CC-BY-NC 4.0 (https://creativecommons.org/licenses/by-nc/4.0/legalcode)
!!!EED: Benjamin Ory
!!!EEV: 2024/3/2
!!!verovio: header true
!!!header-left: @{PTL}\n@{PED}, eds.\n@{PC#} (@{PDT})&nbsp;\n
!!!header-right:
!!!header-center: